X:605
T:Bryan O'Lynn
C:Steeleye Span
R:jig
N:
Z:
M:6/8
K:Ador
B|:"C"cAd cAG|"Em"E3 GAB|"C"c2A "G"BAG|"Am"EAG A2B|
"C(\F)"cAd cAG|"Em"E3 GAB|"C"cde "D"fed|1 "C"cAG "Am"A2B:|2 "C"cAG "Am"ABA||
"G"egg ged|"C"cAB c2d|"Dno3"eaa age|"C"gec "G"def|
"C"g2e "D"fed|"C"cAB cde|"D"fed "C"cAG|1 EAG "Am"ABA:|2 EAG "Am"A2B||
